symbols/web/tab/materialsymbolsoutlined/tab_wght500gradN25fill1_48px.svg

<svg xmlns="http://www.w3.org/2000/svg" height="48" width="48"><path d="M7.25 40.05q-1.35 0-2.325-.975Q3.95 38.1 3.95 36.8V11.2q0-1.35.975-2.325Q5.9 7.9 7.25 7.9h33.5q1.35 0 2.325.975.975.975.975 2.325v25.6q0 1.3-.975 2.275-.975.975-2.325.975Zm18.95-20.4h14.55V11.2H26.2Z"/></svg>

<svg xmlns="http://www.w3.org/2000/svg" height="48" width="48"><path d="M7.25 40.05Q5.9 40.05 4.925 39.075Q3.95 38.1 3.95 36.8V11.2Q3.95 9.85 4.925 8.875Q5.9 7.9 7.25 7.9H40.75Q42.1 7.9 43.075 8.875Q44.05 9.85 44.05 11.2V36.8Q44.05 38.1 43.075 39.075Q42.1 40.05 40.75 40.05ZM26.2 19.65H40.75V11.2Q40.75 11.2 40.75 11.2Q40.75 11.2 40.75 11.2H26.2Z"/></svg>
